places/16x16-light/folder-mixer.svg

<svg height="16" width="16" xmlns="http://www.w3.org/2000/svg">
  <path d="m2.7890291.99999995c-.9911327 0-1.78904831.79791545-1.78904831 1.78904805v10.421905c0 .991131.79791561 1.789047 1.78904831 1.789047h10.4219419c.991133 0 1.789048-.797915 1.789048-1.789047v-10.421905c0-.9911326-.797915-1.78904805-1.789048-1.78904805zm1.3714865 1.66123705h.1419824c.2517163 0 .4543669.2026511.4543669.454367v2.9647021h.4685384c.3618423 0 .6531499.2913081.6531499.6531502v1.3346805c0 .3618434-.2913076.6531502-.6531499.6531502h-.4685384v4.163109c0 .251718-.2026506.454367-.4543669.454367h-.1419824c-.2517163 0-.4543667-.202649-.4543667-.454367v-4.163109h-.4685771c-.3618413 0-.6531113-.2913068-.6531113-.6531502v-1.3346805c0-.3618421.29127-.6531502.6531113-.6531502h.4685771v-2.9647021c0-.2517159.2026504-.454367.4543667-.454367zm3.8904804 0h.1419832c.2517163 0 .4543668.2026511.4543668.454367v6.1452329h.4685384c.3618415 0 .6531482.2912694.6531482.6531118v1.3347203c0 .36184-.2913067.653109-.6531482.653109h-.4685384v.982618c0 .251718-.2026505.454367-.4543668.454367h-.1419832c-.2517163 0-.4543669-.202649-.4543669-.454367v-.982618h-.4685769c-.3618415 0-.6531499-.291269-.6531499-.653109v-1.3347203c0-.3618424.2913084-.6531118.6531499-.6531118h.4685769v-6.1452329c0-.2517159.2026506-.454367.4543669-.454367zm3.890442 0h.141982c.251716 0 .454368.2026511.454368.454367v.619061h.468577c.361841 0 .653151.291308.653151.6531498v1.3346824c0 .3618421-.29131.6531496-.653151.6531496h-.468577v6.5087492c0 .251718-.202652.454367-.454368.454367h-.141982c-.251717 0-.454367-.202649-.454367-.454367v-6.5087492h-.468538c-.361842 0-.65315-.2913075-.65315-.6531496v-1.3346824c0-.3618418.291308-.6531498.65315-.6531498h.468538v-.619061c0-.2517159.20265-.454367.454367-.454367z" fill="#4d4d4d" stroke-width=".019878" />
</svg>

<?xml version="1.0" encoding="UTF-8" standalone="no"?>
<svg
   xmlns:dc="http://purl.org/dc/elements/1.1/"
   xmlns:cc="http://creativecommons.org/ns#"
   xmlns:rdf="http://www.w3.org/1999/02/22-rdf-syntax-ns#"
   xmlns:svg="http://www.w3.org/2000/svg"
   xmlns="http://www.w3.org/2000/svg"
   xmlns:sodipodi="http://sodipodi.sourceforge.net/DTD/sodipodi-0.dtd"
   xmlns:inkscape="http://www.inkscape.org/namespaces/inkscape"
   height="16"
   width="16"
   version="1.1"
   id="svg4"
   sodipodi:docname="folder-mixer.svg"
   inkscape:version="0.92.4 (5da689c313, 2019-01-14)">
  <metadata
     id="metadata10">
    <rdf:RDF>
      <cc:Work
         rdf:about="">
        <dc:format>image/svg+xml</dc:format>
        <dc:type
           rdf:resource="http://purl.org/dc/dcmitype/StillImage" />
        <dc:title></dc:title>
      </cc:Work>
    </rdf:RDF>
  </metadata>
  <defs
     id="defs8" />
  <sodipodi:namedview
     pagecolor="#ffffff"
     bordercolor="#666666"
     borderopacity="1"
     objecttolerance="10"
     gridtolerance="10"
     guidetolerance="10"
     inkscape:pageopacity="0"
     inkscape:pageshadow="2"
     inkscape:window-width="1920"
     inkscape:window-height="1022"
     id="namedview6"
     showgrid="false"
     inkscape:zoom="19.666667"
     inkscape:cx="2.3421894"
     inkscape:cy="8.8643921"
     inkscape:window-x="0"
     inkscape:window-y="32"
     inkscape:window-maximized="1"
     inkscape:current-layer="svg4" />
  <path
     inkscape:connector-curvature="0"
     style="fill:#4d4d4d;stroke-width:0.0198783"
     d="m 2.7890291,0.99999995 c -0.9911327,0 -1.78904831,0.79791545 -1.78904831,1.78904805 V 13.210953 C 0.99998079,14.202084 1.7978964,15 2.7890291,15 H 13.210971 c 0.991133,0 1.789048,-0.797915 1.789048,-1.789047 V 2.789048 c 0,-0.9911326 -0.797915,-1.78904805 -1.789048,-1.78904805 z M 4.1605156,2.661237 H 4.302498 c 0.2517163,0 0.4543669,0.2026511 0.4543669,0.454367 v 2.9647021 h 0.4685384 c 0.3618423,0 0.6531499,0.2913081 0.6531499,0.6531502 v 1.3346805 c 0,0.3618434 -0.2913076,0.6531502 -0.6531499,0.6531502 H 4.7568649 v 4.163109 c 0,0.251718 -0.2026506,0.454367 -0.4543669,0.454367 H 4.1605156 c -0.2517163,0 -0.4543667,-0.202649 -0.4543667,-0.454367 V 8.721287 H 3.2375718 c -0.3618413,0 -0.6531113,-0.2913068 -0.6531113,-0.6531502 V 6.7334563 c 0,-0.3618421 0.29127,-0.6531502 0.6531113,-0.6531502 H 3.7061489 V 3.115604 c 0,-0.2517159 0.2026504,-0.454367 0.4543667,-0.454367 z m 3.8904804,0 h 0.1419832 c 0.2517163,0 0.4543668,0.2026511 0.4543668,0.454367 v 6.1452329 h 0.4685384 c 0.3618415,0 0.6531482,0.2912694 0.6531482,0.6531118 v 1.3347203 c 0,0.36184 -0.2913067,0.653109 -0.6531482,0.653109 H 8.647346 v 0.982618 c 0,0.251718 -0.2026505,0.454367 -0.4543668,0.454367 H 8.050996 c -0.2517163,0 -0.4543669,-0.202649 -0.4543669,-0.454367 V 11.901778 H 7.1280522 c -0.3618415,0 -0.6531499,-0.291269 -0.6531499,-0.653109 V 9.9139487 c 0,-0.3618424 0.2913084,-0.6531118 0.6531499,-0.6531118 H 7.5966291 V 3.115604 c 0,-0.2517159 0.2026506,-0.454367 0.4543669,-0.454367 z m 3.890442,0 h 0.141982 c 0.251716,0 0.454368,0.2026511 0.454368,0.454367 v 0.619061 h 0.468577 c 0.361841,0 0.653151,0.291308 0.653151,0.6531498 v 1.3346824 c 0,0.3618421 -0.29131,0.6531496 -0.653151,0.6531496 h -0.468577 v 6.5087492 c 0,0.251718 -0.202652,0.454367 -0.454368,0.454367 h -0.141982 c -0.251717,0 -0.454367,-0.202649 -0.454367,-0.454367 V 6.3756468 h -0.468538 c -0.361842,0 -0.65315,-0.2913075 -0.65315,-0.6531496 V 4.3878148 c 0,-0.3618418 0.291308,-0.6531498 0.65315,-0.6531498 h 0.468538 V 3.115604 c 0,-0.2517159 0.20265,-0.454367 0.454367,-0.454367 z"
     id="rect678" />
</svg>
